kiosk-igrinskij/images/610e5ebbb6e2ede20c3606aba1734b1b.svg

<svg fill="none" height="16" viewBox="0 0 16 16" width="16" xmlns="http://www.w3.org/2000/svg"><path d="m8 1v14" stroke="#f1e9dd" stroke-miterlimit="10"/><path d="m15 1h-14v14h14z" stroke="#f1e9dd" stroke-miterlimit="10"/><g fill="#f1e9dd"><path d="m15 14.668v.332h-1.7795l-5.2205-5.668v-2.26399zm0-11.73601v-1.93199h-1.7795zm-5.83211 12.06801h2.08531l-3.2532-3.532v2.264zm5.83211-7.66801v-2.26398l-3.7468-4.06801h-2.08531zm-7-5.06398v2.26398l7 7.60001v-2.26399z"/><path d="m8 7.06801v2.26399l-5.22053 5.668h-1.77947v-.332zm-5.22053-6.06801h-1.77947v1.93199zm5.22053 12.732v-2.264l-3.25316 3.532h2.08527zm-1.16789-12.732h-2.08527l-3.74684 4.06801v2.26398zm-5.83211 8.86801v2.26399l7-7.60001v-2.26398z"/></g></svg>

<svg width="16" height="16" viewBox="0 0 16 16" fill="none" xmlns="http://www.w3.org/2000/svg">
<path d="M8 1V15" stroke="#F1E9DD" stroke-miterlimit="10"/>
<path d="M15 1H1V15H15V1Z" stroke="#F1E9DD" stroke-miterlimit="10"/>
<path d="M15 14.668V15H13.2205L8 9.332V7.06801L15 14.668ZM15 2.93199V1H13.2205L15 2.93199ZM9.16789 15H11.2532L8 11.468V13.732L9.16789 15ZM15 7.33199V5.06801L11.2532 1H9.16789L15 7.33199ZM8 2.26801V4.53199L15 12.132V9.86801L8 2.26801Z" fill="#F1E9DD"/>
<path d="M8 7.06801V9.332L2.77947 15H1V14.668L8 7.06801ZM2.77947 1H1V2.93199L2.77947 1ZM8 13.732V11.468L4.74684 15H6.83211L8 13.732ZM6.83211 1H4.74684L1 5.06801V7.33199L6.83211 1ZM1 9.86801V12.132L8 4.53199V2.26801L1 9.86801Z" fill="#F1E9DD"/>
</svg>
